packages/gestalt-icons-android/vr-theme/ic_vr_pen-auto_gestalt.svg

<svg width="24" height="24" viewBox="0 0 24 24" fill="none" xmlns="http://www.w3.org/2000/svg">
<path d="M2.7 0H3.3L3.38677 0.372359C3.64607 1.48509 4.51491 2.35393 5.62764 2.61323L6 2.7V3.3L5.62764 3.38677C4.51491 3.64607 3.64607 4.51491 3.38677 5.62764L3.3 6H2.7L2.61323 5.62764C2.35393 4.51491 1.48509 3.64607 0.372359 3.38677L0 3.3V2.7L0.372359 2.61323C1.48509 2.35393 2.35393 1.48509 2.61323 0.372359L2.7 0Z" fill="black"/>
<path d="M10.7808 0.701725L8.81261 7.00001C7.86236 7.00344 7.04525 7.67531 6.85875 8.60777L4.01953 22.8039L5.98069 23.1961L8.81992 9H15.1803L16.1195 13.6961L18.0807 13.3039L17.1415 8.60777C16.955 7.67531 16.1379 7.00344 15.1876 7.00001L13.2194 0.701725C13.0889 0.28425 12.7023 0 12.2649 0H11.7353C11.2979 0 10.9113 0.284249 10.7808 0.701725Z" fill="black"/>
<path d="M21.5 17C22.3284 17 23 16.3284 23 15.5C23 14.6716 22.3284 14 21.5 14C20.6716 14 20 14.6716 20 15.5C20 16.3284 20.6716 17 21.5 17Z" fill="black"/>
<path d="M19.3 18H18.7L18.6132 18.3724C18.3539 19.4851 17.4851 20.3539 16.3724 20.6132L16 20.7V21.3L16.3724 21.3868C17.4851 21.6461 18.3539 22.5149 18.6132 23.6276L18.7 24H19.3L19.3868 23.6276C19.6461 22.5149 20.5149 21.6461 21.6276 21.3868L22 21.3V20.7L21.6276 20.6132C20.5149 20.3539 19.6461 19.4851 19.3868 18.3724L19.3 18Z" fill="black"/>
</svg>

<svg xmlns="http://www.w3.org/2000/svg" width="24" height="24"><path d="M2.61.37A3 3 0 0 1 .37 2.61L0 2.7v.6l.37.09a3 3 0 0 1 2.24 2.24L2.7 6h.6l.09-.37a3 3 0 0 1 2.24-2.24L6 3.3v-.6l-.37-.09A3 3 0 0 1 3.39.37L3.3 0h-.6zm8.17.33L8.81 7a2 2 0 0 0-1.95 1.6L4.02 22.8l1.96.4L8.82 9h6.36l.94 4.7 1.96-.4-.94-4.7A2 2 0 0 0 15.2 7L13.22.7a1 1 0 0 0-.96-.7h-.52a1 1 0 0 0-.96.7M21.5 17a1.5 1.5 0 1 0 0-3 1.5 1.5 0 0 0 0 3m-2.2 1h-.6l-.09.37a3 3 0 0 1-2.24 2.24l-.37.09v.6l.37.09a3 3 0 0 1 2.24 2.24l.09.37h.6l.09-.37a3 3 0 0 1 2.24-2.24l.37-.09v-.6l-.37-.09a3 3 0 0 1-2.24-2.24z"/></svg>
